build/images/promenade.svg

<svg width="91" height="91" viewBox="0 0 91 91" fill="none" xmlns="http://www.w3.org/2000/svg">
<rect width="91" height="91" rx="45.5" fill="#FAC663"/>
<path d="M68.5772 30.7932C68.2458 30.5281 67.7814 30.4649 67.3651 30.5903C65.8165 31.0563 64.6513 31.9845 64.091 32.5001C63.0564 32.2052 61.9379 32.2051 60.9032 32.5001C60.3361 31.9783 59.1494 31.0339 57.5728 30.5735C57.1028 30.4365 56.5932 30.5725 56.273 30.9292C56.0014 31.2317 55.9327 31.6494 56.0645 32.0236C56.4577 33.1398 57.0943 34.8982 57.3174 35.5133C57.2183 35.82 57.158 36.1417 57.1375 36.4728C57.118 36.7903 57.1238 37.0946 57.1518 37.386L56.7116 38.2518C56.4233 38.8192 55.8462 39.2129 55.1763 39.2985C52.74 39.6102 47.9977 40.2394 43.6087 40.9531C37.9279 41.8767 35.6774 42.4849 34.712 42.8586C33.8883 41.6977 32.7151 40.7523 31.3499 40.16C29.2765 39.2605 25.8076 37.3044 25.8709 34.3088C25.9282 31.5982 27.0335 29.9969 27.9506 29.1309C28.3422 28.7611 28.5477 28.2522 28.5142 27.7346C28.4808 27.216 28.2107 26.7323 27.7731 26.4075C26.9267 25.7794 25.7172 25.8889 25.0196 26.6566C22.6974 29.2119 22.1413 32.7504 22.0164 34.6322C21.8905 36.5292 22.4912 38.2843 23.8019 39.8489C24.7418 40.9708 26.0247 41.9707 27.615 42.8206C29.1569 43.6446 30.2712 44.9597 30.753 46.5238C30.7954 46.6613 30.8154 46.8039 30.8124 46.9469L30.7971 47.6698C30.7895 48.0234 30.7593 48.3762 30.7064 48.7265L30.178 52.2247C29.9707 53.5974 29.0211 54.7517 27.6922 55.3855C26.7689 55.8259 26.2411 56.7634 26.3792 57.718L27.3449 64.3962C27.3949 64.7419 27.713 65 28.089 65H32.0613C32.2218 65 32.3821 64.9604 32.5129 64.8741C32.7799 64.698 32.8879 64.3944 32.8049 64.1172L32.7621 63.974C32.4502 62.9322 31.596 62.1345 30.5103 61.8277L30.3236 60.399C30.2712 59.9984 30.5165 59.6154 30.9207 59.4662L34.7157 58.0662C34.7151 58.1035 34.7137 58.1404 34.7109 58.1762C34.7106 58.1805 34.7103 58.1849 34.71 58.1892C34.6726 58.8496 34.6446 59.4444 34.6267 59.9572C34.602 60.6613 34.8921 61.343 35.4291 61.8411L38.6144 64.7959C38.7552 64.9266 38.9461 64.9999 39.1452 64.9999H43.7506C44.1468 64.9999 44.4809 64.6992 44.5022 64.3322C44.5766 63.0554 43.6076 61.9501 42.2432 61.7583L40.9262 61.5733L40.3821 60.7803C40.1148 60.3905 40.1235 59.8923 40.4044 59.5107L43.9965 54.6313C45.0882 54.3186 49.6923 53.0839 52.3922 53.6688C52.4277 53.9985 52.5258 54.3211 52.6839 54.6225L57.9208 64.6082C58.0464 64.8478 58.3086 64.9999 58.5959 64.9999H62.1578C62.3157 64.9999 62.4732 64.9619 62.6029 64.8786C62.8688 64.7079 62.9815 64.4105 62.9071 64.1347L62.6653 63.2375C62.4319 62.3715 61.7349 61.7072 60.8561 61.4475L61.7283 54.4093C61.7647 54.1155 61.8588 53.8309 62.0066 53.569C62.5489 52.6076 63.6143 50.7596 64.6485 49.1994C65.4613 47.9733 65.9842 46.5636 66.1606 45.1225C66.429 42.93 66.9553 40.1295 67.0857 39.448C67.6637 38.6804 67.9299 37.6644 67.8565 36.4727C67.8361 36.1416 67.7757 35.8199 67.6767 35.5132C67.9017 34.893 68.5471 33.11 68.9395 31.9954C69.0913 31.5643 68.9527 31.0937 68.5772 30.7932ZM30.3658 58.172C29.329 58.5545 28.6987 59.5392 28.8331 60.5666L29.0841 62.488C29.1258 62.8071 29.3975 63.0583 29.7416 63.0958C30.1779 63.1434 30.5687 63.3282 30.8598 63.607H28.7458L27.8674 57.5327C27.8136 57.1608 28.0192 56.7956 28.3788 56.624C30.0462 55.8285 31.2312 54.3731 31.6104 52.6826C32.9614 54.1605 33.9247 55.5571 34.3932 56.6861L30.3658 58.172ZM63.3696 48.4698C62.3123 50.0646 61.229 51.9433 60.6774 52.9212C60.4426 53.3373 60.2944 53.7845 60.2366 54.2502L59.8251 57.5715L58.9185 53.4081C58.8326 53.0136 58.9307 52.6014 59.1877 52.2772L61.256 49.6678C62.3993 48.2255 62.9195 46.4504 62.7209 44.6695C62.6782 44.2869 62.3091 44.009 61.8969 44.0485C61.4845 44.088 61.1847 44.4303 61.2274 44.8128C61.3876 46.2486 60.9682 47.6798 60.0464 48.8427L57.9781 51.4521C57.471 52.0919 57.2773 52.9053 57.4467 53.6839L59.2932 62.1625C59.364 62.4874 59.6718 62.721 60.0291 62.721C60.5881 62.721 61.0733 63.0724 61.2089 63.5755L61.2175 63.6074H59.0656L54.034 54.0131C53.9059 53.7688 53.8555 53.497 53.8883 53.227L54.6328 47.0981C54.6793 46.7159 54.3829 46.3712 53.9709 46.3282C53.5583 46.2853 53.1873 46.56 53.1409 46.9422L52.4939 52.2686C50.0435 51.8384 46.6758 52.5041 44.7632 52.977C44.9182 52.0429 44.6649 51.0678 44.0093 50.2823L42.9124 48.968C42.6585 48.6639 42.1871 48.6082 41.8592 48.8437C41.5313 49.0791 41.4713 49.5166 41.7251 49.8207L42.8221 51.135C43.4355 51.87 43.468 52.8796 42.9029 53.6473L39.1645 58.7253C38.5444 59.5675 38.5251 60.6677 39.1154 61.5281L39.8427 62.5883C39.9592 62.7581 40.1492 62.8728 40.3636 62.903L42.0182 63.1355C42.3574 63.1831 42.6406 63.3604 42.8153 63.6072H39.4561L36.4908 60.8564C36.2486 60.6318 36.1162 60.3206 36.1273 60.0026C36.1448 59.5005 36.1724 58.9172 36.2091 58.2685C36.3755 56.039 34.0268 53.1494 32.6109 51.6244C32.3614 51.3556 32.228 51.0136 32.2355 50.6612L32.3202 46.654C32.3217 46.5847 32.1966 46.1412 32.1966 46.1412C31.6071 44.2272 30.2462 42.6194 28.3644 41.6138C24.1283 39.3499 23.3891 36.6142 23.5149 34.7178C23.7792 30.7337 25.2902 28.5195 26.1675 27.5543C26.3363 27.3686 26.6296 27.3425 26.835 27.4951C26.9808 27.6033 27.0106 27.7437 27.0153 27.8178C27.02 27.8912 27.0087 28.0327 26.8794 28.1548C25.7714 29.201 24.4366 31.1131 24.3695 34.2815C24.2896 38.0647 28.3099 40.3789 30.7136 41.4216C32.0017 41.9803 33.08 42.9238 33.7498 44.0782C33.7498 44.0782 33.7848 44.1383 33.7917 44.1489C33.9022 44.3198 34.087 44.439 34.2982 44.4756C34.5126 44.5128 34.7346 44.4614 34.9051 44.3351C35.6866 43.7564 41.5181 42.4514 55.3817 40.6781C56.3741 40.5512 57.243 40.0428 57.7953 39.2886C57.9344 39.4966 58.0935 39.6892 58.2746 39.8629C59.035 40.5922 60.1249 40.9753 61.4327 40.9753C61.4815 40.9753 63.4013 40.9738 63.4013 40.9738C63.4056 40.9738 63.4099 40.9738 63.4142 40.9737C64.1202 40.9889 64.765 40.8939 65.3327 40.6959C65.1189 41.8967 64.8418 43.552 64.6687 44.9652C64.5171 46.2047 64.0678 47.4165 63.3696 48.4698ZM66.1803 35.2713C66.119 35.4258 66.1179 35.5974 66.1814 35.7552C66.281 36.0029 66.3403 36.2711 66.3576 36.5521C66.4205 37.5742 66.1725 38.3842 65.6403 38.8947C65.1502 39.3648 64.3905 39.6019 63.4442 39.5813C63.4368 39.5811 63.4297 39.5811 63.4226 39.5811C63.4155 39.5811 61.5624 39.5795 61.5274 39.5818C60.5916 39.5976 59.8403 39.3612 59.3538 38.8947C58.8216 38.3843 58.5735 37.5743 58.6365 36.5523C58.6538 36.2714 58.7132 36.0032 58.8128 35.7553C58.8755 35.5989 58.875 35.4289 58.8153 35.2756C58.8147 35.2741 58.8142 35.2726 58.8136 35.2709C58.7421 35.0739 58.1266 33.3785 57.6694 32.0931C59.1354 32.6868 60.1075 33.7455 60.1173 33.7563C60.3285 33.9915 60.6808 34.071 60.9852 33.9524C61.9461 33.5773 63.0482 33.5773 64.0089 33.9524C64.3119 34.0706 64.6639 33.991 64.8756 33.7576C64.8864 33.7457 65.8587 32.6868 67.3247 32.0931C66.8671 33.3796 66.2509 35.0773 66.1803 35.2713Z" fill="#FFFDFB"/>
<path d="M58.8136 35.2709L58.8153 35.2756C59.2561 34.125 59.2561 34.125 60.1173 33.7563C60.1075 33.7455 59.1354 32.6868 57.6694 32.0931C58.1266 33.3785 58.7421 35.0739 58.8136 35.2709Z" fill="#FFFDFB"/>
<path d="M67.3247 32.0931C65.8587 32.6868 64.8864 33.7457 64.8756 33.7576C66.1199 34.1208 66.134 34.3897 66.1787 35.2418L66.1803 35.2713C66.2509 35.0773 66.8671 33.3796 67.3247 32.0931Z" fill="#FFFDFB"/>
<path d="M26.1675 27.5543C25.2902 28.5195 23.7792 30.7337 23.5149 34.7178L24.3695 34.2815C24.4366 31.1131 25.7714 29.201 26.8794 28.1548C27.0087 28.0327 27.02 27.8912 27.0153 27.8178C27.0106 27.7437 26.9808 27.6033 26.835 27.4951C26.6296 27.3425 26.3363 27.3686 26.1675 27.5543Z" fill="#FFFDFB"/>
</svg>

<svg width="91" height="91" fill="none" xmlns="http://www.w3.org/2000/svg"><rect width="91" height="91" rx="45.5" fill="#FAC663"/><path d="M68.577 30.793c-.331-.265-.796-.328-1.212-.203-1.548.466-2.714 1.395-3.274 1.91a5.853 5.853 0 00-3.188 0c-.567-.522-1.754-1.466-3.33-1.927a1.27 1.27 0 00-1.3.356c-.272.303-.34.72-.209 1.095a490.7 490.7 0 001.253 3.49 3.92 3.92 0 00-.18.959 5.81 5.81 0 00.015.913l-.44.866c-.289.567-.866.96-1.536 1.046-2.436.312-7.178.941-11.567 1.655-5.681.924-7.932 1.532-8.897 1.906a8.064 8.064 0 00-3.362-2.699c-2.074-.9-5.542-2.856-5.48-5.851.058-2.71 1.163-4.312 2.08-5.178.392-.37.598-.879.564-1.396a1.805 1.805 0 00-.74-1.328c-.847-.628-2.057-.518-2.754.25-2.323 2.555-2.879 6.093-3.004 7.975-.125 1.897.475 3.652 1.786 5.217.94 1.122 2.223 2.122 3.813 2.972 1.542.824 2.656 2.139 3.138 3.703.042.137.062.28.06.423l-.016.723a8.264 8.264 0 01-.09 1.056l-.529 3.499c-.207 1.372-1.157 2.527-2.486 3.16-.923.44-1.45 1.378-1.313 2.333l.966 6.678c.05.346.368.604.744.604h3.972c.16 0 .321-.04.452-.126a.672.672 0 00.292-.757l-.043-.143c-.312-1.042-1.166-1.84-2.252-2.146l-.186-1.429c-.053-.4.192-.784.597-.933l3.795-1.4c0 .037-.002.074-.005.11l-.001.013c-.037.66-.065 1.255-.083 1.768a2.45 2.45 0 00.802 1.884l3.185 2.955a.78.78 0 00.531.204h4.606c.396 0 .73-.3.751-.668.075-1.277-.894-2.382-2.259-2.574l-1.317-.185-.544-.793a1.083 1.083 0 01.022-1.27l3.592-4.879c1.092-.312 5.696-1.547 8.396-.962.036.33.134.652.292.954l5.237 9.985c.125.24.388.392.675.392h3.562a.825.825 0 00.445-.121.673.673 0 00.304-.744l-.242-.898c-.233-.866-.93-1.53-1.809-1.79l.872-7.038c.037-.294.13-.578.279-.84.542-.961 1.607-2.81 2.642-4.37a9.512 9.512 0 001.512-4.076c.268-2.193.794-4.993.925-5.675.578-.768.844-1.784.77-2.975a3.9 3.9 0 00-.18-.96c.226-.62.871-2.403 1.263-3.518.152-.43.014-.901-.362-1.202zM30.366 58.172c-1.037.383-1.667 1.367-1.533 2.395l.251 1.921c.042.32.314.57.658.608.436.047.827.232 1.118.511h-2.114l-.879-6.074c-.053-.372.152-.737.512-.909 1.667-.796 2.852-2.25 3.231-3.941 1.351 1.477 2.315 2.874 2.783 4.003l-4.027 1.486zM63.37 48.47c-1.058 1.595-2.141 3.473-2.693 4.451a3.594 3.594 0 00-.44 1.33l-.412 3.32-.907-4.163a1.353 1.353 0 01.27-1.13l2.068-2.61c1.143-1.443 1.663-3.218 1.465-4.998-.043-.383-.412-.661-.824-.622-.413.04-.712.382-.67.765.16 1.436-.259 2.867-1.18 4.03l-2.069 2.61a2.669 2.669 0 00-.531 2.23l1.846 8.48c.071.324.379.558.736.558.56 0 1.044.351 1.18.855l.008.031h-2.151l-5.032-9.594a1.339 1.339 0 01-.146-.786l.745-6.129c.046-.382-.25-.727-.662-.77-.413-.043-.784.232-.83.614l-.647 5.327c-2.45-.43-5.818.235-7.73.708a3.333 3.333 0 00-.755-2.695l-1.097-1.314a.79.79 0 00-1.053-.124.663.663 0 00-.134.977l1.097 1.314c.613.735.646 1.745.08 2.512l-3.738 5.078a2.39 2.39 0 00-.049 2.803l.728 1.06c.116.17.306.285.52.315l1.655.233c.34.047.623.224.797.471h-3.359l-2.965-2.75a1.115 1.115 0 01-.364-.854c.018-.502.045-1.086.082-1.734.166-2.23-2.182-5.12-3.598-6.645a1.37 1.37 0 01-.375-.963l.084-4.007c.002-.07-.123-.513-.123-.513-.59-1.914-1.95-3.522-3.833-4.527-4.236-2.264-4.975-5-4.85-6.896.265-3.984 1.776-6.199 2.654-7.164a.504.504 0 01.667-.059.432.432 0 01.18.323.42.42 0 01-.136.337c-1.108 1.046-2.442 2.958-2.51 6.127-.08 3.783 3.94 6.097 6.345 7.14 1.288.558 2.366 1.502 3.036 2.656l.042.07c.11.172.295.291.506.328a.796.796 0 00.607-.14c.782-.58 6.613-1.885 20.477-3.658.992-.127 1.861-.635 2.413-1.39.14.209.298.401.48.575.76.73 1.85 1.112 3.158 1.112l1.968-.001h.013c.706.015 1.351-.08 1.919-.278a84.715 84.715 0 00-.664 4.27 8.175 8.175 0 01-1.3 3.504zm2.81-13.199a.649.649 0 00.001.484c.1.248.16.516.177.797.063 1.022-.186 1.832-.718 2.343-.49.47-1.25.707-2.196.686h-.021c-.008 0-1.86-.002-1.896 0-.935.017-1.687-.22-2.173-.686-.532-.51-.78-1.32-.718-2.343a2.57 2.57 0 01.177-.797.65.65 0 00.002-.48l-.001-.004c-.072-.197-.687-1.892-1.145-3.178a7.46 7.46 0 012.448 1.663.79.79 0 00.868.196 4.203 4.203 0 013.024 0 .793.793 0 00.867-.194 7.46 7.46 0 012.449-1.665 591.192 591.192 0 01-1.145 3.178z" fill="#FFFDFB"/><path d="M58.814 35.27l.001.006c.441-1.151.441-1.151 1.302-1.52a7.46 7.46 0 00-2.448-1.663c.458 1.285 1.073 2.98 1.145 3.178zm8.511-3.177a7.46 7.46 0 00-2.45 1.665c1.245.363 1.259.632 1.304 1.484l.001.03c.07-.195.687-1.892 1.145-3.179zm-41.157-4.539c-.878.966-2.389 3.18-2.653 7.164l.854-.437c.068-3.168 1.402-5.08 2.51-6.126a.42.42 0 00.136-.337.432.432 0 00-.18-.323.504.504 0 00-.668.06z" fill="#FFFDFB"/></svg>
